client/public/assets/icons/design.svg

<?xml version="1.0" encoding="UTF-8" standalone="no"?><!DOCTYPE svg PUBLIC "-//W3C//DTD SVG 1.1//EN" "http://www.w3.org/Graphics/SVG/1.1/DTD/svg11.dtd"><svg width="100%" height="100%" viewBox="0 0 496 496" version="1.1" xmlns="http://www.w3.org/2000/svg" xmlns:xlink="http://www.w3.org/1999/xlink" xml:space="preserve" xmlns:serif="http://www.serif.com/" style="fill-rule:evenodd;clip-rule:evenodd;stroke-linejoin:round;stroke-miterlimit:1.41421;"><path d="M456,128l-56,0l0,-128l-352,0l0,128l-8,0c-22.055,0 -40,17.945 -40,40l0,240c0,22.055 17.945,40 40,40l104,0l0,32l-32,0l0,16l272,0l0,-16l-32,0l0,-32l104,0c22.055,0 40,-17.945 40,-40l0,-240c0,-22.055 -17.945,-40 -40,-40Zm-72,64l16,0l0,48l-16,0l0,-48Zm-16,16l-144,0l0,-16l144,0l0,16Zm-160,28.457l-45.703,-17.137c-1.375,-0.519 -2.297,-1.847 -2.297,-3.32c0,-1.473 0.922,-2.801 2.305,-3.32l45.695,-17.137l0,40.914Zm16,-12.457l144,0l0,16l-144,0l0,-16Zm192,-32l8,0c13.23,0 24,10.77 24,24c0,13.23 -10.77,24 -24,24l-8,0l0,-48Zm-201.457,-16l-57.855,21.695c-7.583,2.84 -12.688,10.2 -12.688,18.305c0,8.105 5.105,15.465 12.68,18.305l57.863,21.695l169.457,0l0,80l-320,0l0,-256l320,0l0,96l-169.457,0Zm169.457,-160l0,48l-320,0l0,-48l320,0Zm-344,128l8,0l0,208l352,0l0,-96l24,0c22.055,0 40,-17.945 40,-40c0,-22.055 -17.945,-40 -40,-40l-24,0l0,-32l56,0c13.23,0 24,10.77 24,24l0,216l-464,0l0,-216c0,-13.23 10.77,-24 24,-24Zm296,336l-176,0l0,-32l176,0l0,32Zm120,-48l-416,0c-13.23,0 -24,-10.77 -24,-24l0,-8l464,0l0,8c0,13.23 -10.77,24 -24,24Z" style="fill-rule:nonzero;"/><rect x="80" y="32" width="16" height="16"/><rect x="112" y="32" width="16" height="16"/><rect x="144" y="32" width="16" height="16"/><path d="M80,160l96,0l0,-64l-96,0l0,64Zm16,-48l64,0l0,32l-64,0l0,-32Z" style="fill-rule:nonzero;"/><path d="M200,96l0,64l96,0l0,-64l-96,0Zm80,48l-64,0l0,-32l64,0l0,32Z" style="fill-rule:nonzero;"/><rect x="80" y="176" width="56" height="16"/><rect x="80" y="208" width="48" height="16"/><rect x="80" y="240" width="56" height="16"/><rect x="80" y="272" width="288" height="16"/><rect x="352" y="304" width="16" height="16"/><rect x="80" y="304" width="256" height="16"/></svg>

<?xml version="1.0" encoding="UTF-8" standalone="no"?>
<!DOCTYPE svg PUBLIC "-//W3C//DTD SVG 1.1//EN" "http://www.w3.org/Graphics/SVG/1.1/DTD/svg11.dtd">
<svg width="100%" height="100%" viewBox="0 0 496 496" version="1.1" xmlns="http://www.w3.org/2000/svg" xmlns:xlink="http://www.w3.org/1999/xlink" xml:space="preserve" xmlns:serif="http://www.serif.com/" style="fill-rule:evenodd;clip-rule:evenodd;stroke-linejoin:round;stroke-miterlimit:1.41421;">
    <path d="M456,128L400,128L400,0L48,0L48,128L40,128C17.945,128 0,145.945 0,168L0,408C0,430.055 17.945,448 40,448L144,448L144,480L112,480L112,496L384,496L384,480L352,480L352,448L456,448C478.055,448 496,430.055 496,408L496,168C496,145.945 478.055,128 456,128ZM384,192L400,192L400,240L384,240L384,192ZM368,208L224,208L224,192L368,192L368,208ZM208,236.457L162.297,219.32C160.922,218.801 160,217.473 160,216C160,214.527 160.922,213.199 162.305,212.68L208,195.543L208,236.457ZM224,224L368,224L368,240L224,240L224,224ZM416,192L424,192C437.23,192 448,202.77 448,216C448,229.23 437.23,240 424,240L416,240L416,192ZM214.543,176L156.688,197.695C149.105,200.535 144,207.895 144,216C144,224.105 149.105,231.465 156.68,234.305L214.543,256L384,256L384,336L64,336L64,80L384,80L384,176L214.543,176ZM384,16L384,64L64,64L64,16L384,16ZM40,144L48,144L48,352L400,352L400,256L424,256C446.055,256 464,238.055 464,216C464,193.945 446.055,176 424,176L400,176L400,144L456,144C469.23,144 480,154.77 480,168L480,384L16,384L16,168C16,154.77 26.77,144 40,144ZM336,480L160,480L160,448L336,448L336,480ZM456,432L40,432C26.77,432 16,421.23 16,408L16,400L480,400L480,408C480,421.23 469.23,432 456,432Z" style="fill:white;fill-rule:nonzero;"/>
    <rect x="80" y="32" width="16" height="16" style="fill:white;"/>
    <rect x="112" y="32" width="16" height="16" style="fill:white;"/>
    <rect x="144" y="32" width="16" height="16" style="fill:white;"/>
    <path d="M80,160L176,160L176,96L80,96L80,160ZM96,112L160,112L160,144L96,144L96,112Z" style="fill:white;fill-rule:nonzero;"/>
    <path d="M200,96L200,160L296,160L296,96L200,96ZM280,144L216,144L216,112L280,112L280,144Z" style="fill:white;fill-rule:nonzero;"/>
    <rect x="80" y="176" width="56" height="16" style="fill:white;"/>
    <rect x="80" y="208" width="48" height="16" style="fill:white;"/>
    <rect x="80" y="240" width="56" height="16" style="fill:white;"/>
    <rect x="80" y="272" width="288" height="16" style="fill:white;"/>
    <rect x="352" y="304" width="16" height="16" style="fill:white;"/>
    <rect x="80" y="304" width="256" height="16" style="fill:white;"/>
</svg>
